Numix-GalliumOS/32/status/appointment-missed.svg

<?xml version="1.0" encoding="UTF-8" standalone="no"?>
<svg
   xmlns:dc="http://purl.org/dc/elements/1.1/"
   xmlns:cc="http://creativecommons.org/ns#"
   xmlns:rdf="http://www.w3.org/1999/02/22-rdf-syntax-ns#"
   xmlns:svg="http://www.w3.org/2000/svg"
   xmlns="http://www.w3.org/2000/svg"
   xmlns:sodipodi="http://sodipodi.sourceforge.net/DTD/sodipodi-0.dtd"
   xmlns:inkscape="http://www.inkscape.org/namespaces/inkscape"
   width="32"
   height="32"
   viewBox="0 0 32 32"
   id="svg2"
   version="1.1"
   inkscape:version="0.91 r13725"
   sodipodi:docname="appointment-missed.svg">
  <metadata
     id="metadata14">
    <rdf:RDF>
      <cc:Work
         rdf:about="">
        <dc:format>image/svg+xml</dc:format>
        <dc:type
           rdf:resource="http://purl.org/dc/dcmitype/StillImage" />
        <dc:title />
      </cc:Work>
    </rdf:RDF>
  </metadata>
  <defs
     id="defs12" />
  <sodipodi:namedview
     pagecolor="#ffffff"
     bordercolor="#666666"
     borderopacity="1"
     objecttolerance="10"
     gridtolerance="10"
     guidetolerance="10"
     inkscape:pageopacity="0"
     inkscape:pageshadow="2"
     inkscape:window-width="1366"
     inkscape:window-height="704"
     id="namedview10"
     showgrid="true"
     inkscape:zoom="11.313708"
     inkscape:cx="21.0625"
     inkscape:cy="12.747267"
     inkscape:window-x="0"
     inkscape:window-y="27"
     inkscape:window-maximized="1"
     inkscape:current-layer="svg2"
     showguides="true">
    <inkscape:grid
       type="xygrid"
       id="grid4187" />
  </sodipodi:namedview>
  <path
     style="opacity:1;fill:#ebebeb;fill-opacity:1;fill-rule:evenodd"
     d="M 30,16 C 30,23.731446 23.731446,30 16,30 8.2685542,30 2,23.731446 2,16 2,8.268554 8.2685542,2 16,2 23.731446,2 30,8.268554 30,16 Z"
     id="path4"
     inkscape:connector-curvature="0" />
  <path
     style="fill:#aaaaaa;opacity:1;fill-opacity:1"
     d="M 15.976562 5.574219 C 15.09375 5.585938 14.386719 6.320312 14.398438 7.199219 L 14.398438 16 C 14.398438 16.375 14.53125 16.738281 14.773438 17.023438 L 18.773438 21.824219 C 19.132812 22.304688 19.71875 22.542969 20.304688 22.457031 C 20.894531 22.363281 21.382812 21.957031 21.574219 21.394531 C 21.769531 20.832031 21.632812 20.207031 21.226562 19.773438 L 17.601562 15.425781 L 17.601562 7.199219 C 17.605469 6.769531 17.4375 6.351562 17.132812 6.042969 C 16.824219 5.738281 16.40625 5.570312 15.976562 5.574219 Z "
     id="path6" />
  <path
     style="fill:#aaa;opacity:1"
     d="M 16 0 C 7.179688 0 0 7.179688 0 16 C 0 24.820312 7.179688 32 16 32 C 24.820312 32 32 24.820312 32 16 C 32 7.179688 24.820312 0 16 0 Z M 16 3.199219 C 23.085938 3.199219 28.800781 8.914062 28.800781 16 C 28.800781 23.085938 23.085938 28.800781 16 28.800781 C 8.914062 28.800781 3.199219 23.085938 3.199219 16 C 3.199219 8.914062 8.914062 3.199219 16 3.199219 Z "
     id="path8" />
  <path
     inkscape:connector-curvature="0"
     style="fill:#dc322f;fill-rule:evenodd"
     d="M 16,24.001953 C 16,28.419922 12.417969,32 8.0000002,32 3.5820311,32 0,28.419922 0,24.001953 0,19.582031 3.5820311,16 8.0000002,16 12.417969,16 16,19.582031 16,24.001953 Z"
     id="path6-9" />
  <path
     inkscape:connector-curvature="0"
     style="fill:#ffffff;fill-opacity:0.9020004;fill-rule:evenodd"
     d="m 4.0039061,20 0,1.333985 c -0.029297,0.373046 0.095703,0.755859 0.3769535,1.013671 l 1.7089845,1.681641 -1.7089845,1.681641 c -0.25,0.25 -0.3769535,0.603515 -0.3769535,0.955078 l 0,1.333984 1.3320315,0 c 0.3535155,0 0.7070315,-0.126953 0.9570315,-0.376953 L 8.0019532,25.914063 9.710938,27.623047 C 9.960938,27.873047 10.314453,28 10.667969,28 L 12,28 12,26.666016 c 0,-0.351563 -0.126953,-0.705078 -0.376953,-0.955078 L 9.94336,24.029297 11.652344,22.347656 C 11.939453,22.082031 12,21.714844 12,21.333985 L 12,20 10.667969,20 c -0.320313,0.0098 -0.574219,0.128906 -0.927734,0.435547 L 8.0019532,22.115235 6.2929691,20.435547 C 6.0566406,20.189453 5.7343751,20.015625 5.3945311,20 c -0.01367,0 -0.04492,0 -0.058593,0 z"
     id="path8-0" />
</svg>

<svg xmlns="http://www.w3.org/2000/svg" viewBox="0 0 32 32">
 <path d="m 30 16 c 0 7.731 -6.269 14 -14 14 -7.731 0 -14 -6.269 -14 -14 0 -7.731 6.269 -14 14 -14 7.731 0 14 6.269 14 14" style="fill:#ebebeb;opacity:1;fill-opacity:1;fill-rule:evenodd"/>
 <path d="m 15.977 5.574 c -0.883 0.012 -1.59 0.746 -1.578 1.625 l 0 8.801 c 0 0.375 0.133 0.738 0.375 1.023 l 4 4.801 c 0.359 0.48 0.945 0.719 1.531 0.633 c 0.59 -0.094 1.078 -0.5 1.27 -1.063 c 0.195 -0.563 0.059 -1.188 -0.348 -1.621 l -3.625 -4.348 l 0 -8.227 c 0.004 -0.43 -0.164 -0.848 -0.469 -1.156 c -0.309 -0.305 -0.727 -0.473 -1.156 -0.469 Z" style="fill:#aaa;opacity:1;fill-opacity:1"/>
 <path d="m 16 0 c -8.82 0 -16 7.18 -16 16 c 0 8.82 7.18 16 16 16 c 8.82 0 16 -7.18 16 -16 c 0 -8.82 -7.18 -16 -16 -16 m 0 3.199 c 7.086 0 12.801 5.715 12.801 12.801 c 0 7.086 -5.715 12.801 -12.801 12.801 c -7.086 0 -12.801 -5.715 -12.801 -12.801 c 0 -7.086 5.715 -12.801 12.801 -12.801 Z" style="fill:#aaa;opacity:1"/>
 <path d="m 16 24 c 0 4.418 -3.582 7.998 -8 7.998 -4.418 0 -8 -3.58 -8 -7.998 0 -4.42 3.582 -8 8 -8 4.418 0 8 3.582 8 8" style="fill:#dc322f;fill-rule:evenodd"/>
 <path d="m 4 20 0 1.334 c -0.029 0.373 0.096 0.756 0.377 1.014 l 1.709 1.682 -1.709 1.682 c -0.25 0.25 -0.377 0.604 -0.377 0.955 l 0 1.334 1.332 0 c 0.354 0 0.707 -0.127 0.957 -0.377 l 1.709 -1.709 1.709 1.709 c 0.25 0.25 0.604 0.377 0.957 0.377 l 1.332 0 0 -1.334 c 0 -0.352 -0.127 -0.705 -0.377 -0.955 l -1.68 -1.682 1.709 -1.682 c 0.287 -0.266 0.348 -0.633 0.348 -1.014 l 0 -1.334 -1.332 0 c -0.32 0.01 -0.574 0.129 -0.928 0.436 l -1.738 1.68 -1.709 -1.68 c -0.236 -0.246 -0.559 -0.42 -0.898 -0.436 c -0.014 0 -0.045 0 -0.059 0 z" style="fill:#fff;fill-opacity:0.902;fill-rule:evenodd"/>
</svg>
